outputs/icons/communication/navigate_round.svg

<svg xmlns="http://www.w3.org/2000/svg" width="1200" height="1200" fill="none"><path fill="#000" d="M353.633 801.49 482.48 510.485c6.233-14.075 17.166-25.362 30.8-31.795l281.915-133.005c32.52-15.342 66.035 19.235 51.17 52.823L717.52 689.515c-6.235 14.075-17.165 25.36-30.8 31.795L404.805 854.315c-32.539 15.34-66.036-19.235-51.172-52.825M644.1 645.525c24.355-25.14 24.355-65.91 0-91.05s-63.845-25.14-88.2 0-24.355 65.91 0 91.05 63.845 25.14 88.2 0M115.625 600c0-276.149 216.856-500 484.375-500s484.375 223.851 484.375 500S867.52 1100 600 1100 115.625 876.15 115.625 600m875 0c0-222.339-175.235-403.226-390.625-403.226S209.375 377.661 209.375 600c0 222.34 175.235 403.225 390.625 403.225S990.625 822.34 990.625 600"/></svg>

<svg width="1200" height="1200" viewBox="0 0 1200 1200" fill="none" xmlns="http://www.w3.org/2000/svg"><path d="M353.633 801.49L482.48 510.485C488.713 496.41 499.646 485.123 513.28 478.69L795.195 345.685C827.715 330.343 861.23 364.92 846.365 398.508L717.52 689.515C711.285 703.59 700.355 714.875 686.72 721.31L404.805 854.315C372.266 869.655 338.769 835.08 353.633 801.49ZM644.1 645.525C668.455 620.385 668.455 579.615 644.1 554.475C619.745 529.335 580.255 529.335 555.9 554.475C531.545 579.615 531.545 620.385 555.9 645.525C580.255 670.665 619.745 670.665 644.1 645.525ZM115.625 600C115.625 323.851 332.481 100 600 100C867.52 100 1084.375 323.851 1084.375 600C1084.375 876.15 867.52 1100 600 1100C332.481 1100 115.625 876.15 115.625 600ZM990.625 600C990.625 377.661 815.39 196.774 600 196.774C384.61 196.774 209.375 377.661 209.375 600C209.375 822.34 384.61 1003.225 600 1003.225C815.39 1003.225 990.625 822.34 990.625 600Z" fill="black"/></svg>
